X: 14588
T: Gan Ainm
R: polka
M: 2/4
K: Dmajor
|:c/B/|AF dF|A2 AF|GA Bc|ed c/d/c/B/|
A>F dF|A3 F/A/|G>A Bc|d3:|
|:d/e/|f>d ec|dc BA|Be e/f/e/d/|c>B c/B/A|
f2 ef/e/|dc B/c/B/A/|Be- eB/c/|d2 d:|

